X:986
T:Reel 986
M:4/4
K:Amaj
L:1/8
ED|CB,CA GEDF|ECA,C B,2AF|ECA,C CB,B,A||GFED E2:||2EFGE A2|AB|cBAc BAGB|AGEF GEDB|cBAc BAGB|AGEC D2ED|EDEF GEDB|cBAG A2AB|cABG AFEC|DB,GB, A,2|
